assets/Baguette bread/Flat/baguette_bread_flat.svg

<svg width="32" height="32" viewBox="0 0 32 32" fill="none" xmlns="http://www.w3.org/2000/svg">
<path d="M17.2308 5.84615L17.0769 6V8.07692H15L12.5769 10.5L12.5 12.5L10.5 12.5769L8.07692 15L8 17L6.00391 17.0781L5.84615 17.2308C3.38462 19.6923 3.38462 23.6923 5.84615 26.1538C8.30769 28.6154 12.3077 28.6154 14.7692 26.1538L26.1538 14.7692C28.6154 12.3077 28.6154 8.30769 26.1538 5.84615C23.6923 3.38462 19.7009 3.38462 17.2308 5.84615Z" fill="#F3AD61"/>
<path d="M5.97412 17.1029L10.4127 21.5414C11.0241 22.1528 12.0076 22.1528 12.619 21.5414C13.2303 20.9389 13.2303 19.9465 12.619 19.3351L8.18041 14.8966L5.97412 17.1029Z" fill="#FFF3D7"/>
<path d="M10.4354 12.6416L14.8784 17.0846C15.4898 17.696 16.4733 17.696 17.0847 17.0846C17.6872 16.4732 17.6872 15.4897 17.0847 14.8783L12.6417 10.4353L10.4354 12.6416Z" fill="#FFF3D7"/>
<path d="M14.8967 8.18029L19.3353 12.6188C19.9467 13.2302 20.9302 13.2302 21.5416 12.6188C22.153 12.0074 22.153 11.0239 21.5416 10.4125L17.103 5.974L14.8967 8.18029Z" fill="#FFF3D7"/>
</svg>

<svg xmlns="http://www.w3.org/2000/svg" width="32" height="32" fill="none"><path fill="#F3AD61" d="M17.23 5.846 17.078 6v2.077H15L12.577 10.5l-.077 2-2 .077L8.077 15 8 17l-1.996.078-.158.153a6.314 6.314 0 0 0 0 8.923 6.314 6.314 0 0 0 8.923 0l11.385-11.385a6.314 6.314 0 0 0 0-8.923 6.314 6.314 0 0 0-8.923 0Z"/><path fill="#FFF3D7" d="m5.974 17.103 4.439 4.438a1.556 1.556 0 0 0 2.206 0 1.556 1.556 0 0 0 0-2.206L8.18 14.897l-2.206 2.206ZM10.435 12.642l4.443 4.443a1.556 1.556 0 0 0 2.207 0 1.572 1.572 0 0 0 0-2.207l-4.443-4.443-2.207 2.207ZM14.897 8.18l4.438 4.439a1.556 1.556 0 0 0 2.207 0 1.556 1.556 0 0 0 0-2.207l-4.439-4.438-2.206 2.206Z"/></svg>
